Numix/64/mimetypes/virtualbox-vmdk.svg

<?xml version="1.0" encoding="UTF-8" standalone="no"?>
<svg
   xmlns:dc="http://purl.org/dc/elements/1.1/"
   xmlns:cc="http://creativecommons.org/ns#"
   xmlns:rdf="http://www.w3.org/1999/02/22-rdf-syntax-ns#"
   xmlns:svg="http://www.w3.org/2000/svg"
   xmlns="http://www.w3.org/2000/svg"
   xmlns:sodipodi="http://sodipodi.sourceforge.net/DTD/sodipodi-0.dtd"
   xmlns:inkscape="http://www.inkscape.org/namespaces/inkscape"
   width="64px"
   height="64px"
   viewBox="0 0 64 64"
   version="1.1"
   id="svg2"
   inkscape:version="0.91 r13725"
   sodipodi:docname="application-vbox-7_P.svg">
  <metadata
     id="metadata15">
    <rdf:RDF>
      <cc:Work
         rdf:about="">
        <dc:format>image/svg+xml</dc:format>
        <dc:type
           rdf:resource="http://purl.org/dc/dcmitype/StillImage" />
        <dc:title></dc:title>
      </cc:Work>
    </rdf:RDF>
  </metadata>
  <defs
     id="defs13">
    <clipPath
       id="clipPath-419917221">
      <g
         transform="translate(0,-1004.3622)"
         id="g17">
        <path
           inkscape:connector-curvature="0"
           d="m -24,13 c 0,1.105 -0.672,2 -1.5,2 -0.828,0 -1.5,-0.895 -1.5,-2 0,-1.105 0.672,-2 1.5,-2 0.828,0 1.5,0.895 1.5,2 z"
           transform="matrix(15.333333,0,0,11.5,414.99999,878.8622)"
           style="fill:#1890d0"
           id="path19" />
      </g>
    </clipPath>
    <clipPath
       id="clipPath-412789426">
      <g
         transform="translate(0,-1004.3622)"
         id="g12">
        <path
           inkscape:connector-curvature="0"
           d="m -24,13 c 0,1.105 -0.672,2 -1.5,2 -0.828,0 -1.5,-0.895 -1.5,-2 0,-1.105 0.672,-2 1.5,-2 0.828,0 1.5,0.895 1.5,2 z"
           transform="matrix(15.333333,0,0,11.5,414.99999,878.8622)"
           style="fill:#1890d0"
           id="path14" />
      </g>
    </clipPath>
    <clipPath
       id="clipPath4213">
      <g
         transform="translate(0,-1004.3622)"
         id="g4215">
        <path
           inkscape:connector-curvature="0"
           d="m -24,13 c 0,1.105 -0.672,2 -1.5,2 -0.828,0 -1.5,-0.895 -1.5,-2 0,-1.105 0.672,-2 1.5,-2 0.828,0 1.5,0.895 1.5,2 z"
           transform="matrix(15.333333,0,0,11.5,414.99999,878.8622)"
           style="fill:#1890d0"
           id="path4217" />
      </g>
    </clipPath>
    <clipPath
       id="clipPath-419917221-6">
      <g
         transform="translate(0,-1004.3622)"
         id="g17-4">
        <path
           inkscape:connector-curvature="0"
           d="m -24,13 c 0,1.105 -0.672,2 -1.5,2 -0.828,0 -1.5,-0.895 -1.5,-2 0,-1.105 0.672,-2 1.5,-2 0.828,0 1.5,0.895 1.5,2 z"
           transform="matrix(15.333333,0,0,11.5,414.99999,878.8622)"
           style="fill:#1890d0"
           id="path19-0" />
      </g>
    </clipPath>
    <clipPath
       id="clipPath-412789426-7">
      <g
         transform="translate(0,-1004.3622)"
         id="g12-2">
        <path
           inkscape:connector-curvature="0"
           d="m -24,13 c 0,1.105 -0.672,2 -1.5,2 -0.828,0 -1.5,-0.895 -1.5,-2 0,-1.105 0.672,-2 1.5,-2 0.828,0 1.5,0.895 1.5,2 z"
           transform="matrix(15.333333,0,0,11.5,414.99999,878.8622)"
           style="fill:#1890d0"
           id="path14-8" />
      </g>
    </clipPath>
    <clipPath
       id="clipPath4251">
      <g
         transform="translate(0,-1004.3622)"
         id="g4253">
        <path
           inkscape:connector-curvature="0"
           d="m -24,13 c 0,1.105 -0.672,2 -1.5,2 -0.828,0 -1.5,-0.895 -1.5,-2 0,-1.105 0.672,-2 1.5,-2 0.828,0 1.5,0.895 1.5,2 z"
           transform="matrix(15.333333,0,0,11.5,414.99999,878.8622)"
           style="fill:#1890d0"
           id="path4255" />
      </g>
    </clipPath>
  </defs>
  <sodipodi:namedview
     pagecolor="#ffffff"
     bordercolor="#666666"
     borderopacity="1"
     objecttolerance="10"
     gridtolerance="10"
     guidetolerance="10"
     inkscape:pageopacity="0"
     inkscape:pageshadow="2"
     inkscape:window-width="1920"
     inkscape:window-height="1013"
     id="namedview11"
     showgrid="false"
     inkscape:zoom="1"
     inkscape:cx="29.112966"
     inkscape:cy="-2.3302098"
     inkscape:window-x="0"
     inkscape:window-y="27"
     inkscape:window-maximized="1"
     inkscape:current-layer="svg2">
    <inkscape:grid
       type="xygrid"
       id="grid4157" />
  </sodipodi:namedview>
  <path
     inkscape:connector-curvature="0"
     id="path5"
     d="M 10.671875,0 C 9.296875,0 8,1.355469 8,2.789062 L 8,61.210938 C 8,62.566406 9.375,64 10.671875,64 l 42.65625,0 C 54.625,64 56,62.566406 56,61.210938 L 56,18 38,0 Z m 0,0"
     style="fill:#f05617;fill-opacity:1;fill-rule:nonzero;stroke:none" />
  <path
     inkscape:connector-curvature="0"
     id="path7"
     d="m 42,18 14,14 0,-14 z m 0,0"
     style="fill:#000000;fill-opacity:0.19607801;fill-rule:nonzero;stroke:none" />
  <path
     inkscape:connector-curvature="0"
     id="path9"
     d="M 38,0 55.984375,18 40.757812,18 C 39.410156,18 38,16.574219 38,15.226562 Z m 0,0"
     style="fill:#ffffff;fill-opacity:0.39215698;fill-rule:nonzero;stroke:none" />
  <path
     inkscape:connector-curvature="0"
     id="path13"
     d="M 8,48 8,61.33594 C 8,62.63281 9.375,64 10.664062,64 l 42.671876,0 C 54.625,64 56,62.63281 56,61.33594 L 56,48 Z m 0,0"
     style="fill:#000000;fill-opacity:0.19607801;fill-rule:nonzero;stroke:none" />
  <g
     id="g4171"
     transform="translate(-1e-6,0)">
    <path
       d="M 18.913685,62 Q 18.509474,60.773828 18.054739,59.227788 17.600001,57.681745 17.19579,56.153473 16.791579,54.607431 16.471581,53.239095 16.15158,51.870759 16.000001,51 l 2.189474,0 q 0.101057,0.852988 0.303157,1.990306 0.202106,1.119548 0.437895,2.327948 0.252631,1.19063 0.522106,2.363491 0.286316,1.155088 0.555789,2.07916 0.269474,-0.906301 0.538947,-2.06139 0.269475,-1.172859 0.505263,-2.363489 0.23579,-1.2084 0.437896,-2.34572 Q 21.692633,51.852988 21.82737,51 l 2.172631,0 q -0.202104,1.066235 -0.505262,2.381259 -0.286316,1.315025 -0.673685,2.772214 -0.370526,1.439419 -0.825263,2.94992 Q 21.541054,60.596123 21.052632,62 l -2.138947,0 z"
       style="font-style:normal;font-variant:normal;font-weight:bold;font-stretch:normal;font-size:medium;line-height:125%;font-family:'Ubuntu Mono';-inkscape-font-specification:'Ubuntu Mono, Bold';text-align:start;letter-spacing:0px;word-spacing:0px;writing-mode:lr-tb;text-anchor:start;fill:#ffffff;fill-opacity:1;stroke:none;stroke-width:1px;stroke-linecap:butt;stroke-linejoin:miter;stroke-opacity:1"
       id="path4159"
       inkscape:connector-curvature="0" />
    <path
       d="m 27.431719,51 q 0.123348,0.373182 0.29956,0.959611 0.193833,0.586431 0.405286,1.261712 0.211453,0.675283 0.422907,1.368337 0.211454,0.693054 0.405287,1.279483 0.211454,-0.657512 0.440528,-1.350565 0.229076,-0.710824 0.44053,-1.350566 Q 30.05727,52.5105 30.233481,51.941842 30.409693,51.373182 30.550661,51 l 1.797358,0 q 0.123349,1.439417 0.229076,2.807754 0.123347,1.368336 0.193831,2.718902 0.0881,1.332794 0.14097,2.701132 Q 32.964756,60.578351 33,62 l -1.99119,0 0.105731,-8.547657 -1.339208,4.655896 -1.585903,0 L 26.903086,53.452343 26.99119,62 25,62 q 0.05286,-1.350565 0.105731,-2.807755 0.07048,-1.457189 0.14097,-2.896607 0.07048,-1.439418 0.15859,-2.789984 Q 25.511022,52.155088 25.634366,51 l 1.797357,0 z"
       style="font-style:normal;font-variant:normal;font-weight:bold;font-stretch:normal;font-size:medium;line-height:125%;font-family:'Ubuntu Mono';-inkscape-font-specification:'Ubuntu Mono, Bold';text-align:start;letter-spacing:0px;word-spacing:0px;writing-mode:lr-tb;text-anchor:start;fill:#ffffff;fill-opacity:1;stroke:none;stroke-width:1px;stroke-linecap:butt;stroke-linejoin:miter;stroke-opacity:1"
       id="path4161"
       inkscape:connector-curvature="0" />
    <path
       d="m 36.054893,60.126183 q 0.08354,0.01735 0.183771,0.01735 0.100243,0 0.183771,0 0.70167,0 1.16945,-0.277602 0.484487,-0.277604 0.768497,-0.763407 0.300716,-0.485806 0.417662,-1.145111 0.13365,-0.676657 0.13365,-1.474764 0,-0.694007 -0.100243,-1.353313 -0.100243,-0.659307 -0.350835,-1.162461 -0.250597,-0.503154 -0.684965,-0.798107 -0.434368,-0.312303 -1.119331,-0.312303 -0.133651,0 -0.300716,0.01735 -0.167064,0 -0.300716,0.0347 l 0,7.217668 z M 41,56.482649 q 0,1.492113 -0.367541,2.550474 -0.350836,1.04101 -0.985681,1.700316 -0.634845,0.659306 -1.520286,0.971608 Q 37.257757,62 36.205251,62 35.653938,62 35.119333,61.930597 34.601432,61.878552 34,61.739745 L 34,51.260247 Q 34.701671,51.104096 35.319809,51.052045 35.937948,51 36.472555,51 q 1.019091,0 1.854415,0.312303 0.852028,0.312303 1.436754,0.988959 0.584726,0.659307 0.902147,1.700316 Q 41,55.025237 41,56.482652 Z"
       style="font-style:normal;font-variant:normal;font-weight:bold;font-stretch:normal;font-size:medium;line-height:125%;font-family:'Ubuntu Mono';-inkscape-font-specification:'Ubuntu Mono, Bold';text-align:start;letter-spacing:0px;word-spacing:0px;writing-mode:lr-tb;text-anchor:start;fill:#ffffff;fill-opacity:1;stroke:none;stroke-width:1px;stroke-linecap:butt;stroke-linejoin:miter;stroke-opacity:1"
       id="path4163"
       inkscape:connector-curvature="0" />
    <path
       d="M 46.808559,62 Q 46.635135,61.378029 46.304054,60.667205 45.988738,59.938611 45.594594,59.263328 45.20045,58.570274 44.759008,57.983845 44.333332,57.379644 43.939189,56.970921 L 43.939189,62 42,62 l 0,-11 1.939189,0 0,4.567043 q 0.346846,-0.497576 0.725224,-1.101777 0.37838,-0.6042 0.709461,-1.2084 0.346846,-0.604201 0.630629,-1.190631 Q 46.288288,51.479806 46.477477,51 l 2.191442,0 q -0.220721,0.479806 -0.536037,1.101777 -0.299549,0.6042 -0.693694,1.279482 -0.394143,0.657513 -0.85135,1.350566 -0.441443,0.693054 -0.93018,1.332796 0.488737,0.533117 0.993242,1.22617 0.504505,0.693054 0.945946,1.492731 0.457208,0.781906 0.819821,1.617124 Q 48.779279,61.218094 49,62 l -2.191441,0 z"
       style="font-style:normal;font-variant:normal;font-weight:bold;font-stretch:normal;font-size:medium;line-height:125%;font-family:'Ubuntu Mono';-inkscape-font-specification:'Ubuntu Mono, Bold';text-align:start;letter-spacing:0px;word-spacing:0px;writing-mode:lr-tb;text-anchor:start;fill:#ffffff;fill-opacity:1;stroke:none;stroke-width:1px;stroke-linecap:butt;stroke-linejoin:miter;stroke-opacity:1"
       id="path4165"
       inkscape:connector-curvature="0" />
  </g>
  <path
     style="fill:#ffffff;fill-opacity:1;fill-rule:nonzero;stroke:none"
     d="m 31.92087,18.820577 c -1.532414,5.855082 -3.122749,11.696691 -4.682765,17.540997 -2.437224,-6.733761 -0.03617,-0.03167 -2.436205,-6.733103 l -4.801901,0 0,2.401214 3.600819,0 3.600817,10.773937 0.457312,0.01191 c 1.224011,-5.667135 2.878834,-11.238649 4.378848,-16.832759 l 0,-0.02183 c 0.927611,3.37586 1.837683,6.757814 2.737692,10.138462 0.843608,-3.179532 1.699639,-6.359839 2.548046,-9.539373 1.87562,4.283272 -0.03581,-0.01904 1.876998,4.28338 l 4.79947,0 -0.0023,-2.413318 -3.600818,0 c -3.07083,-9.147141 -1.8e-5,4.34e-4 -3.075647,-9.352612 -0.848409,3.156787 -1.702071,6.312184 -2.550478,9.464184 -0.858009,-3.245374 -1.734242,-6.490337 -2.625851,-9.726135 l 0.0025,0.0025 z"
     id="path55"
     inkscape:connector-curvature="0"
     sodipodi:nodetypes="ccccccccccccccccccccc" />
</svg>

<svg xmlns="http://www.w3.org/2000/svg" viewBox="0 0 64 64">
 <defs>
  
 </defs>
 <path d="m 10.672 0 c -1.375 0 -2.672 1.355 -2.672 2.789 l 0 58.42 c 0 1.355 1.375 2.789 2.672 2.789 l 42.656 0 c 1.297 0 2.672 -1.434 2.672 -2.789 l 0 -43.21 -18 -18 m -27.328 0" style="fill:#f05617;fill-opacity:1;stroke:none;fill-rule:nonzero"/>
 <path d="m 42 18 14 14 0 -14 z m 0 0" style="fill:#000;fill-opacity:0.196;stroke:none;fill-rule:nonzero"/>
 <path d="m 38 0 17.984 18 -15.227 0 c -1.348 0 -2.758 -1.426 -2.758 -2.773 m 0 -15.227" style="fill:#fff;fill-opacity:0.392;stroke:none;fill-rule:nonzero"/>
 <path d="m 8 48 0 13.336 c 0 1.297 1.375 2.664 2.664 2.664 l 42.672 0 c 1.289 0 2.664 -1.367 2.664 -2.664 l 0 -13.336 m -48 0" style="fill:#000;fill-opacity:0.196;stroke:none;fill-rule:nonzero"/>
 <g transform="translate(-1e-6,0)">
  <path d="m 18.914 62 q -0.404 -1.226 -0.859 -2.772 -0.455 -1.546 -0.859 -3.074 -0.404 -1.546 -0.724 -2.914 -0.32 -1.368 -0.472 -2.239 l 2.189 0 q 0.101 0.853 0.303 1.99 0.202 1.12 0.438 2.328 0.253 1.191 0.522 2.363 0.286 1.155 0.556 2.079 0.269 -0.906 0.539 -2.061 0.269 -1.173 0.505 -2.363 0.236 -1.208 0.438 -2.346 q 0.202 -1.137 0.337 -1.99 l 2.173 0 q -0.202 1.066 -0.505 2.381 -0.286 1.315 -0.674 2.772 -0.371 1.439 -0.825 2.95 q -0.455 1.493 -0.943 2.897 l -2.139 0 z" style="fill:#fff;fill-opacity:1;stroke:none"/>
  <path d="m 27.432 51 q 0.123 0.373 0.3 0.96 0.194 0.586 0.405 1.262 0.211 0.675 0.423 1.368 0.211 0.693 0.405 1.279 0.211 -0.658 0.441 -1.351 0.229 -0.711 0.441 -1.351 q 0.211 -0.658 0.388 -1.226 0.176 -0.569 0.317 -0.942 l 1.797 0 q 0.123 1.439 0.229 2.808 0.123 1.368 0.194 2.719 0.088 1.333 0.141 2.701 q 0.053 1.351 0.088 2.772 l -1.991 0 0.106 -8.548 -1.339 4.656 -1.586 0 l -1.286 -4.656 0.088 8.548 -1.991 0 q 0.053 -1.351 0.106 -2.808 0.07 -1.457 0.141 -2.897 0.07 -1.439 0.159 -2.79 q 0.106 -1.351 0.229 -2.506 l 1.797 0 z" style="fill:#fff;fill-opacity:1;stroke:none"/>
  <path d="m 36.05 60.13 q 0.084 0.017 0.184 0.017 0.1 0 0.184 0 0.702 0 1.169 -0.278 0.484 -0.278 0.768 -0.763 0.301 -0.486 0.418 -1.145 0.134 -0.677 0.134 -1.475 0 -0.694 -0.1 -1.353 -0.1 -0.659 -0.351 -1.162 -0.251 -0.503 -0.685 -0.798 -0.434 -0.312 -1.119 -0.312 -0.134 0 -0.301 0.017 -0.167 0 -0.301 0.035 l 0 7.218 z m 4.945 -3.644 q 0 1.492 -0.368 2.55 -0.351 1.041 -0.986 1.7 -0.635 0.659 -1.52 0.972 q -0.869 0.295 -1.921 0.295 -0.551 0 -1.086 -0.069 -0.518 -0.052 -1.119 -0.191 l 0 -10.479 q 0.702 -0.156 1.32 -0.208 0.618 -0.052 1.153 -0.052 q 1.019 0 1.854 0.312 0.852 0.312 1.437 0.989 0.585 0.659 0.902 1.7 q 0.334 1.024 0.334 2.481" style="fill:#fff;fill-opacity:1;stroke:none"/>
  <path d="m 46.809 62 q -0.173 -0.622 -0.505 -1.333 -0.315 -0.729 -0.709 -1.404 -0.394 -0.693 -0.836 -1.279 -0.426 -0.604 -0.82 -1.013 l 0 5.03 -1.939 0 l 0 -11 1.939 0 0 4.567 q 0.347 -0.498 0.725 -1.102 0.378 -0.604 0.709 -1.208 0.347 -0.604 0.631 -1.191 q 0.284 -0.586 0.473 -1.066 l 2.191 0 q -0.221 0.48 -0.536 1.102 -0.3 0.604 -0.694 1.279 -0.394 0.658 -0.851 1.351 -0.441 0.693 -0.93 1.333 0.489 0.533 0.993 1.226 0.505 0.693 0.946 1.493 0.457 0.782 0.82 1.617 q 0.363 0.817 0.583 1.599 l -2.191 0 z" style="fill:#fff;fill-opacity:1;stroke:none"/>
 </g>
 <path d="m 31.921 18.821 c -1.532 5.855 -3.123 11.697 -4.683 17.541 -2.437 -6.734 -0.036 -0.032 -2.436 -6.733 l -4.802 0 0 2.401 3.601 0 3.601 10.774 0.457 0.012 c 1.224 -5.667 2.879 -11.239 4.379 -16.833 l 0 -0.022 c 0.928 3.376 1.838 6.758 2.738 10.138 0.844 -3.18 1.7 -6.36 2.548 -9.539 1.876 4.283 -0.036 -0.019 1.877 4.283 l 4.799 0 -0.002 -2.413 -3.601 0 c -3.071 -9.147 0 0 -3.076 -9.353 -0.848 3.157 -1.702 6.312 -2.55 9.464 -0.858 -3.245 -1.734 -6.49 -2.626 -9.726 l 0.002 0.003 z" style="fill:#fff;fill-opacity:1;stroke:none;fill-rule:nonzero"/>
</svg>
